X: 3
T: Mrs. Douglas Of Ednam
R: reel
M: 4/4
L: 1/8
K: Amaj
d|ceae ceae|ceae fBBd|ceae fedc|dBed cAA:|
d|c>A A/A/A EAAc|dBcA GBBd|c>A A/A/A EAAc|defg aAA:|

